humanity-icon-theme/Humanity/animations/24/brasero-disc-05.svg

<?xml version="1.0" encoding="UTF-8" standalone="no"?>
<!-- Created with Inkscape (http://www.inkscape.org/) -->
<svg
   xmlns:svg="http://www.w3.org/2000/svg"
   xmlns="http://www.w3.org/2000/svg"
   xmlns:xlink="http://www.w3.org/1999/xlink"
   version="1.0"
   width="24"
   height="24"
   id="svg3236">
  <defs
     id="defs3238">
    <linearGradient
       x1="35.007519"
       y1="23.178743"
       x2="35.007519"
       y2="4.9945626"
       id="linearGradient2460"
       xlink:href="#linearGradient3587-6-5"
       gradientUnits="userSpaceOnUse"
       gradientTransform="translate(-24.785715,-2.035714)" />
    <linearGradient
       id="linearGradient3587-6-5">
      <stop
         id="stop3589-9-2"
         style="stop-color:#000000;stop-opacity:1"
         offset="0" />
      <stop
         id="stop3591-7-4"
         style="stop-color:#363636;stop-opacity:1"
         offset="1" />
    </linearGradient>
    <linearGradient
       x1="15.669166"
       y1="-2.6219723"
       x2="15.669166"
       y2="11.969362"
       id="linearGradient2449"
       xlink:href="#linearGradient3587-6-5"
       gradientUnits="userSpaceOnUse"
       gradientTransform="matrix(0.9302326,0,0,1.2359551,-10.575969,6.1536003)" />
  </defs>
  <g
     id="layer1">
    <path
       d="M 12,5 C 7.5840001,5 3.9999998,8.5840001 4,13 C 4,17.416 7.5840002,21 12,21 C 16.416,21 20,17.416 20,13 C 20,8.5840001 16.416,5.0000002 12,5 z M 12,10 C 13.656,10 15,11.344 15,13 C 15,14.656 13.656,16 12,16 C 10.344,16 9,14.656 9,13 C 9.0000001,11.344 10.344,10 12,10 z"
       id="path3229"
       style="opacity:0.6;fill:#ffffff;fill-opacity:1;fill-rule:evenodd;stroke:none;stroke-width:1;stroke-linecap:butt;stroke-linejoin:miter;marker:none;marker-start:none;marker-mid:none;marker-end:none;stroke-miterlimit:4;stroke-dasharray:none;stroke-dashoffset:0;stroke-opacity:1;visibility:visible;display:inline;overflow:visible;enable-background:accumulate" />
    <path
       d="M 12,4 C 12.404739,4 12.800153,4.0369225 13.1875,4.09375 C 12.801845,4.0363214 12.402435,4 12,4 z M 12,4 C 7.5840001,4 3.9999998,7.5840001 4,12 C 4,16.416 7.5840002,20 12,20 C 16.416,20 20,16.416 20,12 C 20,10.221745 19.420128,8.5787313 18.4375,7.25 C 18.420304,7.2267472 18.392441,7.2105592 18.375,7.1875 C 18.229864,6.9956143 18.067747,6.8028593 17.90625,6.625 C 16.975708,5.6001809 15.780485,4.8092257 14.4375,4.375 L 12.84375,9.15625 C 13.473839,9.3441573 14.023235,9.7024725 14.40625,10.21875 C 14.776386,10.717669 15,11.331512 15,12 C 15,13.656 13.656,15 12,15 C 10.344,15 9,13.656 9,12 C 9.0000001,10.344 10.344,9 12,9 L 12,4 z"
       id="path3170"
       style="opacity:0.41999996;fill:url(#linearGradient2460);fill-opacity:1;fill-rule:evenodd;stroke:none;stroke-width:1;stroke-linecap:butt;stroke-linejoin:miter;marker:none;marker-start:none;marker-mid:none;marker-end:none;stroke-miterlimit:4;stroke-dasharray:none;stroke-dashoffset:0;stroke-opacity:1;visibility:visible;display:inline;overflow:visible;enable-background:accumulate" />
    <path
       d="M 12,4 L 12,9 C 12.295765,9 12.574348,9.075908 12.84375,9.15625 L 14.4375,4.375 C 13.667155,4.1279913 12.851831,4 12,4 z"
       id="path3288"
       style="opacity:0.7;fill:url(#linearGradient2449);fill-opacity:1;fill-rule:nonzero;stroke:none;stroke-width:1;stroke-linecap:butt;stroke-linejoin:miter;marker:none;marker-start:none;marker-mid:none;marker-end:none;stroke-miterlimit:4;stroke-dasharray:none;stroke-dashoffset:0;stroke-opacity:1;visibility:visible;display:inline;overflow:visible;enable-background:accumulate" />
  </g>
</svg>

<?xml version="1.0" encoding="UTF-8" standalone="no"?>
<!-- Created with Inkscape (http://www.inkscape.org/) -->
<svg id="svg3236" xmlns="http://www.w3.org/2000/svg" height="24" width="24" version="1.0" xmlns:xlink="http://www.w3.org/1999/xlink">
 <defs id="defs3238">
  <linearGradient id="linearGradient2460" y2="4.9946" xlink:href="#linearGradient3587-6-5" gradientUnits="userSpaceOnUse" x2="35.008" gradientTransform="translate(-24.786 -2.0357)" y1="23.179" x1="35.008"/>
  <linearGradient id="linearGradient3587-6-5">
   <stop id="stop3589-9-2" offset="0"/>
   <stop id="stop3591-7-4" style="stop-color:#363636" offset="1"/>
  </linearGradient>
  <linearGradient id="linearGradient2449" y2="11.969" xlink:href="#linearGradient3587-6-5" gradientUnits="userSpaceOnUse" x2="15.669" gradientTransform="matrix(.93023 0 0 1.236 -10.576 6.1536)" y1="-2.622" x1="15.669"/>
 </defs>
 <g id="layer1">
  <path id="path3229" style="opacity:.6;fill-rule:evenodd;fill:#fff" d="m12 5c-4.416 0-8 3.584-8 8s3.584 8 8 8 8-3.584 8-8-3.584-8-8-8zm0 5c1.656 0 3 1.344 3 3s-1.344 3-3 3-3-1.344-3-3 1.344-3 3-3z"/>
  <path id="path3170" style="opacity:0.42;fill-rule:evenodd;fill:url(#linearGradient2460)" d="m12 4c0.405 0 0.8 0.0369 1.188 0.0938-0.386-0.0575-0.786-0.0938-1.188-0.0938zc-4.416 0-8 3.584-8 8s3.584 8 8 8 8-3.584 8-8c0-1.778-0.58-3.4213-1.562-4.75-0.018-0.0233-0.046-0.0394-0.063-0.0625-0.145-0.1919-0.307-0.3846-0.469-0.5625-0.93-1.0248-2.126-1.8158-3.468-2.25l-1.594 4.7812c0.63 0.188 1.179 0.5463 1.562 1.0628 0.37 0.499 0.594 1.113 0.594 1.781 0 1.656-1.344 3-3 3s-3-1.344-3-3 1.344-3 3-3v-5z"/>
  <path id="path3288" style="opacity:.7;fill:url(#linearGradient2449)" d="m12 4v5c0.296 0 0.574 0.0759 0.844 0.1562l1.594-4.7812c-0.771-0.247-1.586-0.375-2.438-0.375z"/>
 </g>
</svg>
